static/images/mobile/copyright/wikipedia-tagline-fa.svg

<?xml version="1.0" encoding="UTF-8"?>
<svg xmlns="http://www.w3.org/2000/svg" width="76" height="19" viewBox="0 0 76 19">
	<title>
		Combined-Shape
	</title>
	<g id="Page-1" fill="none" fill-rule="evenodd" stroke="none" stroke-width="1">
		<path id="Combined-Shape" fill="#000" fill-rule="nonzero" d="M14.1699571,10.7264042 C14.2094558,10.7395493 14.2654113,10.7922564 14.3378234,10.884399 C14.6340573,11.2464724 14.9072619,11.7369135 15.1574245,12.3557727 C15.4207449,13.0074948 15.5524114,13.550605 15.5524114,13.9851412 C15.5524872,15.2161353 15.1607866,16.3780163 14.377398,17.4708345 C13.7059202,18.4056327 13.1463532,18.8730697 12.6987351,18.8730697 C11.737596,18.8730697 10.9080855,18.8236489 10.2102542,18.7249464 C9.97984728,18.6920835 9.86463749,18.6360902 9.86463749,18.5570802 C9.86463749,18.4780828 9.98313357,18.4155421 10.2201257,18.3694582 C11.2075931,18.1653795 12.201633,17.642025 13.2023087,16.7993694 C14.2687734,15.8974846 14.8019742,15.0318502 14.8019742,14.2023145 C14.8019691,13.6493328 14.3609033,12.9449415 13.4787363,12.0891028 L14.0514611,10.8942705 C14.1041176,10.7889828 14.1436163,10.7329894 14.1699571,10.7264042 Z M68.0757135,1.7973359 C68.1086269,1.7973359 68.12837,1.8697607 68.1349552,2.01457239 C68.2205378,3.66037234 68.2633354,7.09012288 68.2633354,12.3039504 C68.2633354,12.8175092 68.1580098,13.2881946 67.9473459,13.7161203 C67.8222646,13.9728681 67.736682,14.1012357 67.6906107,14.1012357 C67.6379416,14.1012357 67.6116133,13.9399547 67.6116133,13.6173799 C67.6116108,12.1559914 67.3548655,8.58783749 66.8413825,2.91317082 L67.8880915,1.93557501 C67.9802593,1.85000504 68.0427874,1.80392112 68.0757135,1.7973359 Z M19.6511876,1.7973359 C19.6841011,1.7973359 19.7038441,1.8697607 19.7104294,2.01457239 C19.8025846,3.58137496 19.8486811,7.01112549 19.8486811,12.3039504 C19.8486811,12.8043388 19.7400565,13.2750368 19.5228201,13.7161203 C19.3977388,13.9728681 19.3121561,14.1012357 19.2660849,14.1012357 C19.2134157,14.1012357 19.1870875,13.9399547 19.1870875,13.6173799 C19.1870837,12.1559914 18.9303397,8.58783749 18.4168566,2.91317082 L19.4635657,1.93557501 C19.5557209,1.85000504 19.6182615,1.80392112 19.6511876,1.7973359 Z M8.98566833,1.7973359 C9.0185818,1.7973359 9.03832483,1.8697607 9.04491005,2.01457239 C9.13049266,3.66037234 9.17329028,7.09012288 9.17329028,12.3039504 C9.17329028,12.8175092 9.06795201,13.2881946 8.85730074,13.7161203 C8.73221943,13.9728681 8.64663683,14.1012357 8.60056555,14.1012357 C8.54789641,14.1012357 8.52156816,13.9399547 8.52156816,13.6173799 C8.52156564,12.1559914 8.26482034,8.58783749 7.75133732,2.91317082 L8.79804638,1.93557501 C8.89020157,1.85000504 8.95274222,1.80392112 8.98566833,1.7973359 Z M29.3266864,6.12678451 L29.3410219,6.18314923 C29.4113185,6.48156944 29.6929035,7.84199225 30.1857862,10.2642252 C30.3503535,11.0739548 30.5017631,11.6006082 30.6400275,11.844173 C30.8506787,12.2128316 31.183125,12.3971547 31.6373663,12.3971547 L32.2594865,12.3971547 L32.2587408,12.4019577 L33.4852479,12.4028678 C33.7354105,12.4028678 33.952647,12.3600196 34.13697,12.2745002 C34.321293,12.1889302 34.5056161,12.0473795 34.6899517,11.8498861 C34.8742747,11.6523926 35.0767103,11.3956574 35.2972457,11.0796679 C35.5177811,10.7636783 35.7893299,10.3785629 36.1119047,9.9243216 C36.5266346,9.34501164 36.9512488,9.05535034 37.3857217,9.05535034 C38.0045304,9.05535034 38.504843,9.36476731 38.8866721,9.98357596 C39.1697355,10.431232 39.3310292,10.8887596 39.3705279,11.3561081 C39.3770879,11.4219098 39.3803742,11.4860683 39.3803742,11.548609 L39.3803742,11.7312889 L39.3803742,11.7312889 C39.3803742,12.0801919 39.3375765,12.391252 39.2520066,12.6644439 C39.1664239,12.9376485 39.0610857,13.1664123 38.936017,13.3507353 C38.8109357,13.5350709 38.677626,13.6749532 38.536088,13.7704073 C38.39455,13.8658362 38.2645266,13.9135885 38.1460431,13.9135885 C37.4745654,13.9135885 36.5199609,13.4824018 35.2824195,12.6200537 C34.8940178,13.0742823 34.6273984,13.3606447 34.4825741,13.4791408 C34.1534141,13.7358886 33.7485557,13.8642562 33.2679861,13.8642562 L32.1521512,13.8642562 L32.1513043,13.8580375 L31.5781372,13.8586948 C30.4985021,13.8586948 29.8139044,13.187217 29.5242052,11.8441982 C28.9317248,12.4300934 28.5893943,12.723041 28.4972392,12.723041 L27.3814042,12.723041 C26.9929899,12.723041 26.6013019,12.6637614 26.2063149,12.5453032 C25.6665037,12.3807232 25.3965981,12.1503163 25.3965981,11.8540698 C25.3965981,10.9126863 25.7323306,10.1424176 26.4038211,9.5434278 C26.8646349,9.14185564 27.6381521,8.72712568 28.7243219,8.29921264 L28.4774582,7.0846373 L29.3266864,6.12678451 Z M2.77480532,6.38114345 C2.81430402,6.38114345 2.89658769,6.43056422 3.021669,6.52925407 C5.1283081,8.2211885 6.18156446,9.78786467 6.18156446,11.2296618 C6.18149368,12.987322 5.01628349,13.8661522 2.6858985,13.8661522 C1.81692725,13.8661522 1.18166187,13.7477193 0.780102352,13.5106639 C0.260034117,13.2078448 0,12.6581494 0,11.8615777 C0,11.4863464 0.102039344,11.1045299 0.306118033,10.7161156 C0.398273224,10.5383778 0.483855833,10.4495089 0.562853219,10.4495089 C0.661593633,10.4495089 0.697806035,10.5580829 0.671477786,10.7753699 C0.651722119,10.9333647 0.641850606,11.0650312 0.641850606,11.1703569 C0.641848078,11.6970103 0.878842766,12.0524986 1.35282708,12.2368216 C1.64906096,12.3486819 2.11646006,12.4046879 2.7550623,12.4046879 C4.59829252,12.4046879 5.51997082,12.1183255 5.51997082,11.5455881 C5.5199645,10.6437034 4.44362195,9.41265868 2.29093685,7.8524287 L2.66618076,6.56875277 C2.70567945,6.44362091 2.74187921,6.38114345 2.77480532,6.38114345 Z M72.5693123,6.38114345 C72.608811,6.38114345 72.6910947,6.43056422 72.816176,6.52925407 C74.9228151,8.2211885 75.9760715,9.78786467 75.9760715,11.2296618 C75.9759956,12.987322 74.8107905,13.8661522 72.4804055,13.8661522 C71.6114343,13.8661522 70.9761689,13.7477193 70.5746094,13.5106639 C70.0545411,13.2078448 69.794507,12.6581494 69.794507,11.8615777 C69.794507,11.4863464 69.8965464,11.1045299 70.100625,10.7161156 C70.1927929,10.5383778 70.2783628,10.4495089 70.3573602,10.4495089 C70.4561006,10.4495089 70.492313,10.5580829 70.4659848,10.7753699 C70.4462291,10.9333647 70.4363576,11.0650312 70.4363576,11.1703569 C70.4363551,11.6970103 70.6733498,12.0524986 71.1473341,12.2368216 C71.443568,12.3486819 71.9109671,12.4046879 72.5495693,12.4046879 C74.3927995,12.4046879 75.3144778,12.1183255 75.3144778,11.5455881 C75.3144715,10.6437034 74.238129,9.41265868 72.0854439,7.8524287 L72.4606878,6.56875277 C72.5001865,6.44362091 72.5363862,6.38114345 72.5693123,6.38114345 Z M41.8793712,2.02893096 C41.9188699,2.02893096 41.9550696,2.10792834 41.9879957,2.26592312 C42.0209092,2.42393053 42.0505364,2.63622495 42.0768646,2.90283165 C42.1031929,3.16946363 42.1262348,3.4772248 42.1459905,3.82611518 C42.1657335,4.17503084 42.1821903,4.53874745 42.1953607,4.917265 C42.2085311,5.29580784 42.2184027,5.67762433 42.2249879,6.06272711 C42.2315605,6.44785517 42.2348468,6.80827284 42.2348468,7.14400542 L42.2348468,10.827306 C42.2348442,11.8740277 42.7384583,12.3973948 43.745656,12.3973948 L45.0085398,12.3973063 C46.2395845,12.3973063 46.9110497,11.9200357 47.0230364,10.9654945 C47.0691203,10.583678 47.1645744,10.3927571 47.3093987,10.3927571 C47.454223,10.3927571 47.5463909,10.5902632 47.5858896,10.9852375 C47.6714722,11.9266336 48.3100239,12.3973316 49.5015446,12.3973316 L51.131583,12.3973063 C52.0466382,12.3973063 52.5863989,11.903579 52.7509662,10.9160737 C52.7904649,10.6724964 52.8694623,10.5506887 52.9879584,10.5506887 C53.093284,10.5506887 53.159111,10.6758332 53.1854518,10.9259453 C53.2841923,11.9068274 53.814132,12.397319 54.7752584,12.397319 C55.7100566,12.397319 56.2300743,11.9068779 56.3354884,10.9259453 C56.3618167,10.6757827 56.4276436,10.5506887 56.5329819,10.5506887 C56.6514653,10.5506887 56.7271764,10.6725469 56.7601025,10.9160737 C56.8917564,11.9035411 57.3328273,12.3973063 58.0833404,12.3973063 C59.0181386,12.3973063 59.5381562,11.9068653 59.6435703,10.9259326 C59.6698986,10.67577 59.7357255,10.5506887 59.8410638,10.5506887 C59.9595473,10.5506887 60.0352584,10.6725343 60.0681845,10.9160611 C60.1932531,11.9035284 60.6935657,12.3972937 61.5691348,12.3972937 L62.0332855,12.3972937 L62.0325398,12.4019577 L62.6358144,12.4028678 C63.8931874,12.4028678 64.5218928,12.1757598 64.5218928,11.7215185 C64.5218903,11.4055289 64.2355304,10.8821744 63.6627931,10.1514296 L64.1762761,8.90722708 C64.2289452,8.78209522 64.2717302,8.71960513 64.3046437,8.71960513 C64.3375571,8.71960513 64.406683,8.79531623 64.5120086,8.94672578 C65.0452347,9.73011442 65.311854,10.5332461 65.311854,11.3560829 C65.311854,13.0281479 64.4792216,13.8642562 62.8136533,13.8642562 L61.3422796,13.8642562 L61.3403917,13.8473285 C60.627602,13.7825335 60.1179926,13.4407066 59.8114366,12.8218573 C59.5086049,13.5130781 58.949038,13.8586948 58.1327738,13.8586948 C57.4217973,13.8586948 56.8753882,13.5130781 56.4935464,12.8218573 C56.1380582,13.5130781 55.5784912,13.8586948 54.8148835,13.8586948 C53.8932431,13.8586948 53.277784,13.5130781 52.968367,12.8218573 C52.4877975,13.5130781 51.8327764,13.8586948 51.0032912,13.8586948 L49.6496552,13.8586948 C48.4844374,13.8586948 47.7042972,13.4768783 47.3093102,12.7132327 C46.8748246,13.4768783 46.0057902,13.8586948 44.7023965,13.8586948 L43.4483098,13.8586948 L43.4472986,13.8542457 L43.3102319,13.8505959 C43.0021412,13.8289994 42.73092,13.7642139 42.4965619,13.6562719 C42.2036144,13.5213064 41.9616801,13.3106552 41.7707719,13.0242928 C41.5798636,12.7379178 41.4399687,12.3692718 41.3510998,11.9183294 C41.2622309,11.467387 41.2177902,10.9226337 41.2177902,10.2840315 L41.227649,7.87467436 C41.2276478,6.72921226 41.128896,5.09004809 40.9314025,2.95711865 L41.7115049,2.12764609 C41.7773318,2.06179387 41.8332872,2.02893096 41.8793712,2.02893096 Z M37.1882156,10.3488346 C36.8063865,10.3488346 36.3653283,10.73395 35.8649778,11.5041682 C35.957133,11.6094559 36.1118415,11.7263594 36.3290906,11.854727 C36.5463271,11.9830946 36.7783898,12.1032338 37.0252535,12.2151447 C37.2721172,12.327005 37.5156946,12.4208792 37.755973,12.4965776 C37.9962515,12.5722887 38.1855166,12.6100811 38.3237683,12.6100811 C38.5212618,12.6100811 38.6200022,12.5015071 38.6200401,12.28422 C38.6200401,12.0933623 38.5772425,11.8859973 38.4916725,11.662163 C38.4060899,11.4383413 38.2958222,11.2293331 38.1608694,11.035126 C38.0259039,10.8409314 37.8728512,10.6779946 37.7016986,10.5463281 C37.5305334,10.4146742 37.3593682,10.3488346 37.1882156,10.3488346 Z M28.9415457,9.27684638 C28.5202179,9.40197824 28.0100338,9.6093053 27.4110188,9.89895396 C26.6012892,10.2939409 26.1964308,10.6066441 26.1964308,10.8370511 C26.1964308,11.0345445 26.5058351,11.1826678 27.1246564,11.2814082 C27.5393864,11.353833 27.9245018,11.3899822 28.27999,11.3899822 C28.69472,11.3899822 29.0567934,11.353833 29.3662104,11.2814082 L28.9415457,9.27684638 Z M57.7279153,6.58111428 L58.6660251,7.50932725 L57.7377995,8.42768135 L56.8095739,7.49945574 L57.7279153,6.58111428 Z M55.4864498,6.58111428 L56.4146628,7.50932725 L55.4963213,8.42768135 L54.5582242,7.49945574 L55.4864498,6.58111428 Z M47.0724318,6.30452231 L48.1092694,7.33148833 L47.0823033,8.35845436 L46.0454658,7.33148833 L47.0724318,6.30452231 Z M13.5972956,6.17420822 L14.6242616,7.20117425 L13.5972956,8.22814027 L12.5703296,7.19130273 L13.5972956,6.17420822 Z M64.186274,4.56226971 L65.21324,5.59910725 L64.186274,6.62607327 L63.159308,5.58923573 L64.186274,4.56226971 Z M56.6022215,4.60617962 L57.5304345,5.53439259 L56.612093,6.4626182 L55.6739959,5.52452107 L56.6022215,4.60617962 Z M27.1134957,1.74761178 C27.5677243,1.74761178 27.893598,1.95828833 28.0910915,2.37959088 C28.1240049,2.46516085 28.1404617,2.52772678 28.1404617,2.56720019 C28.1404591,2.65277016 28.0910788,2.69559306 27.9923384,2.69558042 C27.9528397,2.69559306 27.9034569,2.68546876 27.8442152,2.6660038 C27.6138082,2.58043383 27.3406037,2.53764885 27.0246141,2.53763621 C26.9522019,2.53764885 26.8699056,2.55078137 26.7777504,2.5770717 C26.6855826,2.60336203 26.6,2.63799449 26.5210153,2.68071627 C26.4420179,2.72356446 26.3761909,2.77285883 26.3235218,2.82883953 C26.2708526,2.88483288 26.2445244,2.94246938 26.2445244,3.00163526 C26.2445231,3.10035039 26.2807242,3.199154 26.353149,3.29788178 C26.4255611,3.39659691 26.5226584,3.48551637 26.6444534,3.56450112 C26.7662358,3.6434985 26.9061307,3.70933809 27.0641254,3.76199458 C27.2221202,3.81470164 27.3899865,3.84099197 27.5677369,3.84099197 C27.6664774,3.84100461 27.7751019,3.8308803 27.893598,3.81141535 C28.0120941,3.7916976 28.143748,3.76528087 28.2885849,3.73241796 C28.3149132,3.7192728 28.3395983,3.71270021 28.3626402,3.71270021 L28.4169525,3.71270021 L28.4169525,3.71270021 C28.4564512,3.71271285 28.4761943,3.73241796 28.4761943,3.77197985 C28.4761943,3.80484277 28.472908,3.83454578 28.4663354,3.86083611 L28.3083532,4.48289313 C27.3932981,4.66064357 26.4485652,4.92397662 25.4743062,5.272867 L25.4743062,4.80875419 C25.5533036,4.75604714 25.6619282,4.69196446 25.8001673,4.6162028 C25.9384064,4.54049171 26.1029864,4.4499923 26.2938946,4.34464139 C25.7606559,3.98259321 25.4940492,3.67317624 25.4940492,3.41642842 C25.4940492,3.16627845 25.6685007,2.8371311 26.0174038,2.42896108 C26.3992202,1.97474507 26.76458,1.74761178 27.1134957,1.74761178 Z M20.8459315,0 C20.898588,0 20.9249289,0.0164314564 20.9249289,0.049420765 C20.9249289,0.102127821 20.8393463,0.197556664 20.6681937,0.335795771 L20.6682822,0.335858969 C20.1284583,0.783515039 19.4504079,1.00734939 18.6340679,1.00733675 C18.5155718,1.00734939 18.3378213,0.992548444 18.1008292,0.962845426 C17.863837,0.933268805 17.6860866,0.918354098 17.5675905,0.918354098 C17.4991244,0.91836421 17.4127566,0.977329376 17.3084807,1.09530137 L17.2269158,1.19484495 C17.0853778,1.37919325 16.9816953,1.4713358 16.9158684,1.4713358 C16.8039575,1.4713358 16.7480021,1.39233842 16.7480021,1.23434364 C16.7480021,1.12905593 16.8204143,0.915080447 16.9652512,0.592493039 C17.123246,0.237017439 17.2614851,0.0592796389 17.3799812,0.0592669993 C17.4958406,0.059277111 17.6696359,0.0771484685 17.9013605,0.112965201 L18.0860156,0.143193823 C18.4118766,0.19918717 18.6669687,0.227120646 18.8513043,0.227120646 C19.5754386,0.227133286 20.1152625,0.177699881 20.4706876,0.0789973866 C20.6615958,0.0262903302 20.7866771,0 20.8459315,0 Z"/>
	</g>
</svg>

<svg xmlns="http://www.w3.org/2000/svg" width="76" height="19"><path fill="#000" fill-rule="nonzero" d="M14.17 10.726c.04.014.095.066.168.158.296.362.57.853.82 1.472.263.651.394 1.195.394 1.63 0 1.23-.391 2.392-1.175 3.485-.671.935-1.23 1.402-1.678 1.402-.961 0-1.79-.05-2.489-.148-.23-.033-.345-.089-.345-.168 0-.079.118-.141.355-.188.988-.204 1.982-.727 2.982-1.57 1.067-.902 1.6-1.767 1.6-2.597 0-.553-.441-1.257-1.323-2.113l.572-1.195c.053-.105.093-.161.119-.168zm53.906-8.929c.033 0 .052.073.059.218.086 1.645.128 5.075.128 10.289 0 .514-.105.984-.316 1.412-.125.257-.21.385-.256.385-.053 0-.08-.161-.08-.484 0-1.461-.256-5.03-.77-10.704l1.047-.977c.092-.086.155-.132.188-.139zm-48.425 0c.033 0 .053.073.06.218.092 1.566.138 4.996.138 10.289 0 .5-.109.971-.326 1.412-.125.257-.21.385-.257.385-.053 0-.079-.161-.079-.484 0-1.461-.257-5.03-.77-10.704l1.047-.977c.092-.086.154-.132.187-.139zm-10.665 0c.033 0 .052.073.059.218.085 1.645.128 5.075.128 10.289 0 .514-.105.984-.316 1.412-.125.257-.21.385-.256.385-.053 0-.08-.161-.08-.484 0-1.461-.256-5.03-.77-10.704l1.047-.977c.092-.086.155-.132.188-.139zm20.34 4.33.015.056c.07.299.352 1.659.845 4.081.164.81.316 1.337.454 1.58.21.369.543.553.997.553h.622v.005h1.226c.25 0 .468-.042.652-.127.184-.086.369-.228.553-.425a7.09 7.09 0 0 0 .607-.77c.22-.316.492-.701.815-1.156.415-.579.84-.869 1.274-.869.619 0 1.119.31 1.5.929.284.447.445.905.485 1.372.006.066.01.13.01.193v.182c0 .35-.043.66-.129.933-.086.274-.19.502-.316.687a1.536 1.536 0 0 1-.4.42.714.714 0 0 1-.39.143c-.671 0-1.626-.432-2.864-1.294-.388.454-.655.74-.8.86-.329.256-.733.384-1.214.384h-1.116v-.006h-.574c-1.08 0-1.764-.67-2.054-2.014-.592.586-.935.879-1.027.879h-1.116c-.388 0-.78-.06-1.175-.178-.54-.164-.81-.395-.81-.69 0-.942.336-1.713 1.008-2.312.46-.401 1.234-.816 2.32-1.244l-.247-1.214.85-.958zM2.776 6.38c.04 0 .122.05.247.148 2.106 1.692 3.16 3.259 3.16 4.7 0 1.758-1.166 2.637-3.496 2.637-.87 0-1.504-.118-1.906-.355-.52-.303-.78-.853-.78-1.65 0-.375.102-.756.306-1.145.092-.178.178-.266.257-.266.099 0 .135.108.108.325-.02.158-.03.29-.03.395 0 .527.238.882.712 1.067.296.112.763.168 1.402.168 1.843 0 2.765-.287 2.765-.86 0-.901-1.076-2.132-3.23-3.693l.376-1.283c.04-.125.076-.188.109-.188zm69.794 0c.04 0 .122.05.247.148 2.107 1.692 3.16 3.259 3.16 4.7 0 1.758-1.165 2.637-3.496 2.637-.869 0-1.504-.118-1.905-.355-.52-.303-.78-.853-.78-1.65 0-.375.102-.756.306-1.145.092-.178.177-.266.256-.266.1 0 .135.108.109.325-.02.158-.03.29-.03.395 0 .527.237.882.711 1.067.297.112.764.168 1.403.168 1.843 0 2.764-.287 2.764-.86 0-.901-1.076-2.132-3.229-3.693l.376-1.283c.04-.125.075-.188.108-.188zM41.88 2.03c.04 0 .076.079.109.237.033.158.063.37.089.637.026.266.05.574.069.923.02.349.036.713.05 1.091a64.813 64.813 0 0 1 .039 2.227v3.683c0 1.047.503 1.57 1.51 1.57h1.264c1.23 0 1.902-.477 2.014-1.432.046-.381.142-.572.286-.572.145 0 .237.197.277.592.085.942.724 1.412 1.916 1.412h1.63c.915 0 1.454-.493 1.619-1.48.04-.245.118-.366.237-.366.105 0 .171.125.197.375.1.98.63 1.471 1.59 1.471.935 0 1.455-.49 1.56-1.471.027-.25.093-.375.198-.375.118 0 .194.122.227.365.132.988.573 1.481 1.323 1.481.935 0 1.455-.49 1.56-1.471.027-.25.093-.375.198-.375.119 0 .194.122.227.365.125.988.626 1.481 1.501 1.481h.464v.005h.603c1.257 0 1.886-.226 1.886-.68 0-.316-.286-.84-.86-1.57l.514-1.245c.053-.125.096-.187.129-.187s.102.075.207.227c.533.783.8 1.586.8 2.41 0 1.671-.833 2.507-2.498 2.507h-1.472l-.002-.017c-.712-.064-1.222-.406-1.529-1.025-.302.691-.862 1.037-1.678 1.037-.711 0-1.258-.346-1.64-1.037-.355.691-.915 1.037-1.678 1.037-.922 0-1.537-.346-1.847-1.037-.48.691-1.135 1.037-1.965 1.037H49.65c-1.166 0-1.946-.382-2.34-1.146-.435.764-1.304 1.146-2.608 1.146h-1.254v-.005l-.138-.003a2.321 2.321 0 0 1-.813-.195 1.737 1.737 0 0 1-.726-.632c-.191-.286-.331-.655-.42-1.106a8.593 8.593 0 0 1-.133-1.634l.01-2.41c0-1.145-.1-2.784-.297-4.917l.78-.83c.066-.065.122-.098.168-.098zm-4.69 8.32c-.383 0-.824.385-1.324 1.155.092.105.247.222.464.35a7.258 7.258 0 0 0 1.427.643c.24.075.43.113.568.113.197 0 .296-.108.296-.326 0-.19-.043-.398-.128-.622a2.925 2.925 0 0 0-.331-.627 2.179 2.179 0 0 0-.46-.489.84.84 0 0 0-.513-.197zm-8.247-1.072c-.422.125-.932.332-1.531.622-.81.395-1.215.708-1.215.938 0 .198.31.346.929.444.414.073.8.109 1.155.109.415 0 .777-.036 1.086-.109l-.424-2.004zM57.728 6.58l.938.928-.928.919-.928-.929.918-.918zm-2.242 0 .929.928-.919.919-.938-.929.928-.918zm-8.414-.276L48.11 7.33l-1.027 1.027-1.037-1.027 1.027-1.026zm-33.475-.13L14.624 7.2l-1.027 1.027-1.027-1.037 1.027-1.017zm50.59-1.613L65.212 5.6l-1.027 1.027L63.16 5.59l1.027-1.027zm-7.585.044.928.928-.918.929-.938-.938.928-.919zM27.113 1.748c.455 0 .78.21.978.632.033.085.05.148.05.187 0 .086-.05.129-.149.129a.496.496 0 0 1-.148-.03 2.355 2.355 0 0 0-.82-.128.912.912 0 0 0-.246.04 1.27 1.27 0 0 0-.257.103.776.776 0 0 0-.197.148.252.252 0 0 0-.08.173.5.5 0 0 0 .11.296c.072.099.169.188.29.267.122.078.262.144.42.197.158.053.326.079.504.079.098 0 .207-.01.326-.03.118-.02.25-.046.395-.079a.167.167 0 0 1 .074-.02h.054c.04 0 .06.02.06.06a.368.368 0 0 1-.01.089l-.159.622c-.915.178-1.86.441-2.834.79v-.464c.08-.053.188-.117.326-.193l.494-.271c-.533-.362-.8-.672-.8-.929 0-.25.175-.579.523-.987.382-.454.748-.681 1.096-.681zM20.846 0c.053 0 .079.016.079.05 0 .052-.086.148-.257.286-.54.448-1.218.671-2.034.671-.118 0-.296-.014-.533-.044a4.73 4.73 0 0 0-.533-.045c-.069 0-.155.06-.26.177l-.081.1c-.142.184-.245.276-.311.276-.112 0-.168-.079-.168-.237 0-.105.072-.319.217-.642.158-.355.296-.533.415-.533.116 0 .29.018.521.054l.185.03c.326.056.581.084.765.084.724 0 1.264-.05 1.62-.148A1.86 1.86 0 0 1 20.846 0z"/></svg>
